;FLAVOR:Marlin
;TIME:6998
;Filament used: 1.12277m
;Layer height: 0.12
;MINX:80.052
;MINY:97.199
;MINZ:0.12
;MAXX:139.532
;MAXY:122.8
;MAXZ:51.6
;Generated with Cura_SteamEngine 4.6.1
M140 S90
M105
M190 S90
M104 S225
M105
M109 S225
M82 ;absolute extrusion mode
M201 X500.00 Y500.00 Z100.00 E5000.00 ;Setup machine max acceleration
M203 X500.00 Y500.00 Z10.00 E50.00 ;Setup machine max feedrate
M204 P500.00 R1000.00 T500.00 ;Setup Print/Retract/Travel acceleration
M205 X8.00 Y8.00 Z0.40 E5.00 ;Setup Jerk
M220 S100 ;Reset Feedrate
M221 S100 ;Reset Flowrate

G28 ;Home

G92 E0 ;Reset Extruder
G1 Z2.0 F3000 ;Move Z Axis up
G1 X10.1 Y20 Z0.28 F5000.0 ;Move to start position
G1 X10.1 Y200.0 Z0.28 F1500.0 E15 ;Draw the first line
G1 X10.4 Y200.0 Z0.28 F5000.0 ;Move to side a little
G1 X10.4 Y20 Z0.28 F1500.0 E30 ;Draw the second line
G92 E0 ;Reset Extruder
G1 Z2.0 F3000 ;Move Z Axis up

G92 E0
G92 E0
G1 F2700 E-5
;LAYER_COUNT:430
;LAYER:0
M107
G0 F6000 X84.891 Y102.107 Z0.12
;TYPE:SKIRT
G1 F2700 E0
G1 F900 X85.603 Y101.523 E0.01838
G1 X86.362 Y101.003 E0.03674
G1 X87.164 Y100.55 E0.05512
G1 X88.002 Y100.169 E0.07349
G1 X88.87 Y99.862 E0.09186
G1 X89.761 Y99.631 E0.11023
G1 X90.669 Y99.479 E0.1286
G1 X91.968 Y99.399 E0.15458
G1 X93.325 Y99.399 E0.18166
G1 X94.188 Y99.04 E0.20031
G1 X95.066 Y98.762 E0.21869
G1 X95.965 Y98.562 E0.23707
G1 X96.877 Y98.441 E0.25543
G1 X97.818 Y98.399 E0.27422
G1 X107.952 Y98.399 E0.47646
G1 X108.691 Y98.431 E0.49122
G1 X109.199 Y98.399 E0.50138
G1 X111.244 Y98.399 E0.54219
G1 X111.716 Y98.42 E0.55162
G1 X111.823 Y98.41 E0.55376
G1 X112.31 Y98.399 E0.56348
G1 X123.191 Y98.399 E0.78062
G1 X124.111 Y98.439 E0.799
G1 X125.024 Y98.559 E0.81738
G1 X125.923 Y98.757 E0.83575
G1 X126.801 Y99.033 E0.85412
G1 X127.652 Y99.384 E0.87249
G1 X127.687 Y99.402 E0.87327
G1 X128.539 Y99.439 E0.89029
G1 X129.452 Y99.559 E0.90867
G1 X130.351 Y99.757 E0.92704
G1 X131.229 Y100.033 E0.9454
G1 X132.08 Y100.384 E0.96377
G1 X132.898 Y100.807 E0.98215
G1 X133.675 Y101.3 E1.00052
G1 X134.407 Y101.858 E1.01888
G1 X135.238 Y102.63 E1.04152
G1 X135.356 Y102.752 E1.04491
G1 X135.967 Y103.441 E1.06328
G1 X136.516 Y104.18 E1.08165
G1 X136.998 Y104.964 E1.10002
G1 X137.411 Y105.787 E1.1184
G1 X137.75 Y106.643 E1.13677
G1 X138.014 Y107.525 E1.15514
G1 X138.201 Y108.426 E1.17351
G1 X138.308 Y109.341 E1.19189
G1 X138.331 Y110.474 E1.21451
G1 X138.31 Y111.105 E1.2271
G1 X138.24 Y112.023 E1.24548
G1 X138.09 Y112.931 E1.26384
G1 X137.861 Y113.823 E1.28222
G1 X137.557 Y114.692 E1.30059
G1 X137.178 Y115.531 E1.31897
G1 X136.727 Y116.334 E1.33735
G1 X136.209 Y117.094 E1.3557
G1 X135.627 Y117.808 E1.37408
G1 X134.985 Y118.467 E1.39244
G1 X134.288 Y119.069 E1.41082
G1 X134.188 Y119.141 E1.41328
G1 X134.093 Y119.225 E1.41581
G1 X133.354 Y119.774 E1.43418
G1 X132.571 Y120.257 E1.45254
G1 X131.748 Y120.67 E1.47092
G1 X130.892 Y121.01 E1.4893
G1 X130.01 Y121.275 E1.50768
G1 X129.109 Y121.462 E1.52604
G1 X128.195 Y121.57 E1.54441
G1 X127.408 Y121.599 E1.56012
G1 X119.506 Y121.599 E1.71782
G1 X118.005 Y121.588 E1.74777
G1 X117.469 Y121.599 E1.75847
G1 X112.362 Y121.6 E1.86039
G1 X111.787 Y121.575 E1.87187
G1 X111.163 Y121.6 E1.88433
G1 X109.138 Y121.6 E1.92475
G1 X108.477 Y121.571 E1.93795
G1 X107.993 Y121.6 E1.94762
G1 X92.374 Y121.599 E2.25932
G1 X91.455 Y121.559 E2.27768
G1 X90.542 Y121.439 E2.29605
G1 X89.643 Y121.241 E2.31442
G1 X88.764 Y120.965 E2.33281
G1 X88.194 Y120.73 E2.34511
G1 X87.658 Y120.524 E2.35657
G1 X86.83 Y120.12 E2.37496
G1 X86.041 Y119.646 E2.39333
G1 X85.296 Y119.105 E2.4117
G1 X84.601 Y118.502 E2.43006
G1 X83.96 Y117.84 E2.44845
G1 X83.38 Y117.126 E2.46681
G1 X82.863 Y116.364 E2.48518
G1 X82.415 Y115.559 E2.50357
G1 X82.038 Y114.719 E2.52194
G1 X81.736 Y113.85 E2.5403
G1 X81.51 Y112.957 E2.55868
G1 X81.362 Y112.049 E2.57704
G1 X81.307 Y111.428 E2.58949
G1 X81.267 Y110.749 E2.60306
G1 X81.253 Y109.829 E2.62142
G1 X81.319 Y108.911 E2.63979
G1 X81.464 Y108.001 E2.65818
G1 X81.688 Y107.108 E2.67655
G1 X81.988 Y106.238 E2.69491
G1 X82.362 Y105.397 E2.71328
G1 X82.809 Y104.592 E2.73166
G1 X83.323 Y103.828 E2.75003
G1 X84.114 Y102.878 E2.7747
G1 X84.233 Y102.751 E2.77818
G1 X84.891 Y102.107 E2.79655
G0 F6000 X84.611 Y101.821
G1 F900 X85.334 Y101.224 E2.81526
G1 X86.106 Y100.691 E2.83398
G1 X86.92 Y100.226 E2.85269
G1 X87.771 Y99.831 E2.87141
G1 X88.652 Y99.511 E2.89012
G1 X89.558 Y99.266 E2.90885
G1 X90.481 Y99.1 E2.92756
G1 X91.415 Y99.013 E2.94628
G1 X91.968 Y98.999 E2.95732
G1 X93.249 Y98.999 E2.98289
G1 X93.969 Y98.694 E2.99849
G1 X94.861 Y98.404 E3.01721
G1 X95.774 Y98.191 E3.03592
G1 X96.702 Y98.056 E3.05463
G1 X97.818 Y97.999 E3.07693
G1 X107.952 Y97.999 E3.27917
G1 X108.53 Y98.024 E3.29071
G1 X108.633 Y98.014 E3.29278
G1 X109.199 Y97.999 E3.30408
G1 X111.244 Y97.999 E3.34489
G1 X111.784 Y98.022 E3.35567
G1 X112.31 Y97.999 E3.36618
G1 X123.191 Y97.999 E3.58332
G1 X124.128 Y98.039 E3.60204
G1 X125.058 Y98.159 E3.62075
G1 X125.975 Y98.357 E3.63947
G1 X126.871 Y98.633 E3.65818
G1 X127.741 Y98.984 E3.6769
G1 X127.785 Y99.006 E3.67788
G1 X128.556 Y99.039 E3.69328
G1 X129.486 Y99.159 E3.712
G1 X130.403 Y99.357 E3.73072
G1 X131.299 Y99.633 E3.74943
G1 X132.169 Y99.984 E3.76815
G1 X133.005 Y100.408 E3.78686
G1 X133.803 Y100.902 E3.80559
G1 X134.555 Y101.462 E3.8243
G1 X135.526 Y102.352 E3.85058
G1 X135.644 Y102.474 E3.85397
G1 X136.266 Y103.175 E3.87267
G1 X136.827 Y103.927 E3.89139
G1 X137.322 Y104.723 E3.9101
G1 X137.747 Y105.56 E3.92883
G1 X138.099 Y106.429 E3.94754
G1 X138.376 Y107.325 E3.96626
G1 X138.575 Y108.241 E3.98497
G1 X138.696 Y109.171 E4.00368
G1 X138.731 Y110.487 E4.02995
G1 X138.71 Y111.118 E4.04255
G1 X138.639 Y112.053 E4.06127
G1 X138.488 Y112.979 E4.07999
G1 X138.259 Y113.888 E4.0987
G1 X137.954 Y114.775 E4.11741
G1 X137.574 Y115.632 E4.13612
G1 X137.122 Y116.454 E4.15484
G1 X136.603 Y117.235 E4.17356
G1 X136.018 Y117.968 E4.19227
G1 X135.373 Y118.649 E4.21099
G1 X134.673 Y119.273 E4.2297
G1 X134.475 Y119.421 E4.23464
G1 X134.359 Y119.524 E4.23773
G1 X133.608 Y120.085 E4.25644
G1 X132.811 Y120.58 E4.27516
G1 X131.975 Y121.006 E4.29389
G1 X131.106 Y121.359 E4.3126
G1 X130.211 Y121.636 E4.3313
G1 X129.294 Y121.836 E4.35003
G1 X128.364 Y121.957 E4.36875
G1 X127.408 Y121.999 E4.38784
G1 X119.503 Y121.999 E4.5456
G1 X117.989 Y121.987 E4.57581
G1 X117.816 Y121.993 E4.57926
G1 X117.469 Y121.999 E4.58619
G1 X112.362 Y122 E4.68811
G1 X111.733 Y121.973 E4.70067
G1 X111.163 Y122 E4.71206
G1 X109.138 Y122 E4.75247
G1 X108.604 Y121.977 E4.76314
G1 X107.993 Y122 E4.77534
G1 X92.374 Y121.999 E5.08703
G1 X91.437 Y121.959 E5.10575
G1 X90.507 Y121.839 E5.12446
G1 X89.59 Y121.641 E5.14318
G1 X88.694 Y121.365 E5.16189
G1 X87.957 Y121.067 E5.17776
G1 X87.595 Y120.932 E5.18547
G1 X86.748 Y120.529 E5.20418
G1 X85.938 Y120.056 E5.2229
G1 X85.171 Y119.516 E5.24162
G1 X84.454 Y118.912 E5.26033
G1 X83.79 Y118.249 E5.27906
G1 X83.186 Y117.532 E5.29777
G1 X82.644 Y116.766 E5.31649
G1 X82.17 Y115.957 E5.3352
G1 X81.767 Y115.11 E5.35392
G1 X81.437 Y114.232 E5.37264
G1 X81.183 Y113.33 E5.39134
G1 X81.006 Y112.408 E5.41008
G1 X80.908 Y111.452 E5.42925
G1 X80.868 Y110.773 E5.44283
G1 X80.853 Y109.835 E5.46155
G1 X80.918 Y108.9 E5.48025
G1 X81.062 Y107.973 E5.49897
G1 X81.284 Y107.062 E5.51769
G1 X81.584 Y106.173 E5.53641
G1 X81.958 Y105.313 E5.55512
G1 X82.404 Y104.488 E5.57384
G1 X82.918 Y103.704 E5.59255
G1 X83.498 Y102.966 E5.61128
G1 X83.941 Y102.478 E5.62443
G1 X84.611 Y101.821 E5.64316
G0 F6000 X84.331 Y101.535
G1 F900 X85.066 Y100.926 E5.66221
G1 X85.849 Y100.38 E5.68126
G1 X86.675 Y99.902 E5.7003
G1 X87.539 Y99.495 E5.71936
G1 X88.433 Y99.161 E5.73841
G1 X89.353 Y98.903 E5.75747
G1 X90.29 Y98.723 E5.77651
G1 X91.24 Y98.622 E5.79558
G1 X91.968 Y98.599 E5.81011
G1 X93.171 Y98.599 E5.83412
G1 X93.749 Y98.35 E5.84668
G1 X94.654 Y98.047 E5.86573
G1 X95.582 Y97.821 E5.88479
G1 X96.525 Y97.673 E5.90384
G1 X97.818 Y97.599 E5.92968
G1 X107.952 Y97.599 E6.13192
G1 X108.49 Y97.622 E6.14266
G1 X109.199 Y97.599 E6.15682
G1 X111.244 Y97.599 E6.19763
G1 X111.709 Y97.619 E6.20692
G1 X111.821 Y97.609 E6.20916
G1 X112.31 Y97.599 E6.21892
G1 X123.191 Y97.599 E6.43606
G1 X124.145 Y97.639 E6.45512
G1 X125.092 Y97.759 E6.47417
G1 X126.026 Y97.957 E6.49322
G1 X126.94 Y98.233 E6.51228
G1 X127.878 Y98.61 E6.53245
G1 X128.573 Y98.639 E6.54633
G1 X129.52 Y98.759 E6.56538
G1 X130.454 Y98.957 E6.58443
G1 X131.368 Y99.233 E6.60349
G1 X132.256 Y99.585 E6.62255
G1 X133.111 Y100.009 E6.64159
G1 X133.928 Y100.504 E6.66066
G1 X134.7 Y101.065 E6.6797
G1 X135.423 Y101.689 E6.69876
G1 X135.931 Y102.195 E6.71307
G1 X136.566 Y102.909 E6.73214
G1 X137.138 Y103.673 E6.75118
G1 X137.645 Y104.482 E6.77024
G1 X138.082 Y105.331 E6.78929
G1 X138.446 Y106.214 E6.80835
G1 X138.736 Y107.123 E6.82739
G1 X138.948 Y108.054 E6.84645
G1 X139.082 Y109 E6.86551
G1 X139.136 Y109.953 E6.88456
G1 X139.131 Y110.5 E6.89548
G1 X139.11 Y111.131 E6.90808
G1 X139.038 Y112.083 E6.92713
G1 X138.887 Y113.026 E6.94619
G1 X138.657 Y113.953 E6.96525
G1 X138.351 Y114.857 E6.9843
G1 X137.97 Y115.733 E7.00336
G1 X137.518 Y116.573 E7.02239
G1 X136.996 Y117.373 E7.04146
G1 X136.41 Y118.126 E7.0605
G1 X135.762 Y118.828 E7.07956
G1 X135.058 Y119.473 E7.09862
G1 X134.756 Y119.706 E7.10623
G1 X134.625 Y119.823 E7.10974
G1 X133.862 Y120.396 E7.12878
G1 X133.053 Y120.903 E7.14783
G1 X132.204 Y121.341 E7.16689
G1 X131.322 Y121.706 E7.18594
G1 X130.412 Y121.996 E7.205
G1 X129.481 Y122.209 E7.22406
G1 X128.536 Y122.343 E7.24311
G1 X127.408 Y122.399 E7.26565
G1 X119.5 Y122.399 E7.42346
G1 X117.999 Y122.388 E7.45342
G1 X117.469 Y122.399 E7.46399
G1 X112.362 Y122.4 E7.56591
G1 X111.685 Y122.372 E7.57943
G1 X111.163 Y122.4 E7.58986
G1 X109.138 Y122.4 E7.63028
G1 X108.472 Y122.372 E7.64358
G1 X107.993 Y122.4 E7.65315
G1 X92.374 Y122.399 E7.96485
G1 X91.42 Y122.359 E7.9839
G1 X90.473 Y122.239 E8.00295
G1 X89.539 Y122.041 E8.022
G1 X88.625 Y121.765 E8.04106
G1 X87.777 Y121.429 E8.05926
G1 X87.534 Y121.34 E8.06443
G1 X86.667 Y120.939 E8.08349
G1 X85.838 Y120.466 E8.10253
G1 X85.051 Y119.926 E8.12158
G1 X84.311 Y119.322 E8.14064
G1 X83.625 Y118.658 E8.1597
G1 X82.997 Y117.939 E8.17875
G1 X82.431 Y117.17 E8.1978
G1 X81.932 Y116.356 E8.21686
G1 X81.502 Y115.503 E8.23592
G1 X81.145 Y114.618 E8.25496
G1 X80.864 Y113.705 E8.27403
G1 X80.66 Y112.773 E8.29307
G1 X80.509 Y111.475 E8.31914
G1 X80.469 Y110.796 E8.33272
G1 X80.453 Y109.842 E8.35176
G1 X80.516 Y108.889 E8.37082
G1 X80.66 Y107.945 E8.38987
G1 X80.881 Y107.016 E8.40893
G1 X81.18 Y106.11 E8.42797
G1 X81.553 Y105.231 E8.44703
G1 X81.999 Y104.387 E8.46608
G1 X82.514 Y103.582 E8.48515
G1 X83.094 Y102.824 E8.50419
G1 X83.53 Y102.331 E8.51733
G1 X83.649 Y102.204 E8.5208
G1 X84.331 Y101.535 E8.53987
G0 F6000 X84.05 Y101.25
G1 F900 X84.797 Y100.628 E8.55926
G1 X85.592 Y100.07 E8.57865
G1 X86.43 Y99.579 E8.59803
G1 X87.306 Y99.159 E8.61742
G1 X88.213 Y98.812 E8.6368
G1 X89.146 Y98.541 E8.65618
G1 X90.098 Y98.348 E8.67557
G1 X91.063 Y98.234 E8.69496
G1 X91.968 Y98.199 E8.71303
G1 X93.089 Y98.199 E8.7354
G1 X93.527 Y98.007 E8.74495
G1 X94.446 Y97.691 E8.76434
G1 X95.387 Y97.452 E8.78372
G1 X96.345 Y97.291 E8.8031
G1 X97.313 Y97.21 E8.82249
G1 X97.818 Y97.199 E8.83257
G1 X107.952 Y97.199 E9.0348
G1 X108.544 Y97.223 E9.04663
G1 X109.199 Y97.199 E9.05971
G1 X111.244 Y97.199 E9.10052
G1 X111.773 Y97.221 E9.11108
G1 X112.31 Y97.199 E9.12181
G1 X123.191 Y97.199 E9.33895
G1 X124.162 Y97.239 E9.35834
G1 X125.126 Y97.359 E9.37773
G1 X126.076 Y97.557 E9.3971
G1 X127.008 Y97.833 E9.41649
G1 X127.913 Y98.185 E9.43587
G1 X127.972 Y98.214 E9.43718
G1 X128.59 Y98.239 E9.44953
G1 X129.554 Y98.359 E9.46891
G1 X130.504 Y98.557 E9.48828
G1 X131.436 Y98.833 E9.50768
G1 X132.341 Y99.185 E9.52705
G1 X133.215 Y99.61 E9.54645
G1 X134.05 Y100.106 E9.56583
G1 X134.842 Y100.668 E9.58521
G1 X135.585 Y101.294 E9.6046
G1 X136.101 Y101.795 E9.61895
G1 X136.219 Y101.917 E9.62234
G1 X136.865 Y102.643 E9.64173
G1 X137.449 Y103.419 E9.66111
G1 X137.967 Y104.24 E9.68049
G1 X138.416 Y105.102 E9.69988
G1 X138.793 Y105.997 E9.71926
G1 X139.095 Y106.921 E9.73866
G1 X139.319 Y107.866 E9.75804
G1 X139.466 Y108.826 E9.77742
G1 X139.532 Y109.795 E9.79681
G1 X139.53 Y110.513 E9.81113
G1 X139.509 Y111.144 E9.82373
G1 X139.437 Y112.113 E9.84312
G1 X139.286 Y113.073 E9.86252
G1 X139.055 Y114.016 E9.88189
G1 X138.749 Y114.938 E9.90128
G1 X138.367 Y115.831 E9.92066
G1 X137.913 Y116.69 E9.94005
G1 X137.39 Y117.509 E9.95944
G1 X136.801 Y118.282 E9.97884
G1 X136.151 Y119.003 E9.99821
G1 X135.444 Y119.669 E10.01759
G1 X135.029 Y120 E10.02819
G1 X134.892 Y120.122 E10.03185
G1 X134.116 Y120.707 E10.05124
G1 X133.295 Y121.226 E10.07062
G1 X132.434 Y121.675 E10.09
G1 X131.538 Y122.052 E10.1094
G1 X130.615 Y122.355 E10.12879
G1 X129.67 Y122.58 E10.14817
G1 X128.71 Y122.727 E10.16755
G1 X127.408 Y122.799 E10.19358
G1 X119.497 Y122.799 E10.35145
G1 X118.009 Y122.788 E10.38114
G1 X117.842 Y122.793 E10.38448
G1 X117.469 Y122.799 E10.39192
G1 X112.362 Y122.8 E10.49384
G1 X111.65 Y122.771 E10.50806
G1 X111.163 Y122.8 E10.51779
G1 X109.138 Y122.8 E10.55821
G1 X108.603 Y122.778 E10.56889
G1 X107.993 Y122.8 E10.58107
G1 X92.374 Y122.799 E10.89277
G1 X91.404 Y122.759 E10.91214
G1 X90.44 Y122.639 E10.93153
G1 X89.489 Y122.441 E10.95091
G1 X88.558 Y122.164 E10.9703
G1 X87.475 Y121.748 E10.99345
G1 X86.59 Y121.348 E11.01283
G1 X85.74 Y120.876 E11.03223
G1 X84.933 Y120.337 E11.0516
G1 X84.172 Y119.732 E11.071
G1 X83.464 Y119.067 E11.09038
G1 X82.813 Y118.346 E11.10977
G1 X82.224 Y117.574 E11.12915
G1 X81.7 Y116.756 E11.14853
G1 X81.245 Y115.898 E11.16791
G1 X80.862 Y115.005 E11.1873
G1 X80.554 Y114.084 E11.20668
G1 X80.322 Y113.141 E11.22606
G1 X80.17 Y112.181 E11.24546
G1 X80.109 Y111.499 E11.25913
G1 X80.069 Y110.82 E11.2727
G1 X80.052 Y109.849 E11.29208
G1 X80.115 Y108.879 E11.31148
G1 X80.257 Y107.918 E11.33086
G1 X80.478 Y106.972 E11.35025
G1 X80.776 Y106.048 E11.36962
G1 X81.149 Y105.151 E11.38901
G1 X81.595 Y104.288 E11.4084
G1 X82.109 Y103.464 E11.42778
G1 X82.69 Y102.686 E11.44716
G1 X83.238 Y102.058 E11.46379
G1 X83.357 Y101.931 E11.46726
G1 X84.05 Y101.25 E11.48665
G0 F6000 X85.171 Y102.394
G1 F900 X85.87 Y101.822 E11.50468
G1 X86.617 Y101.315 E11.52269
G1 X87.407 Y100.876 E11.54073
G1 X88.231 Y100.508 E11.55874
G1 X89.086 Y100.215 E11.57677
G1 X89.962 Y99.998 E11.59478
G1 X90.855 Y99.86 E11.61282
G1 X91.968 Y99.799 E11.63506
G1 X93.427 Y99.799 E11.66418
G1 X93.569 Y99.726 E11.66736
G1 X94.406 Y99.387 E11.68538
G1 X95.27 Y99.122 E11.70342
G1 X96.154 Y98.936 E11.72145
G1 X97.05 Y98.828 E11.73946
G1 X97.818 Y98.799 E11.75479
G1 X107.952 Y98.799 E11.95703
G1 X108.653 Y98.83 E11.97103
G1 X109.199 Y98.799 E11.98194
G1 X111.244 Y98.799 E12.02275
G1 X111.784 Y98.823 E12.03354
G1 X112.31 Y98.799 E12.04405
G1 X123.191 Y98.799 E12.26119
G1 X124.093 Y98.839 E12.27921
G1 X124.988 Y98.959 E12.29723
G1 X125.869 Y99.157 E12.31525
G1 X126.729 Y99.432 E12.33327
G1 X127.562 Y99.783 E12.35131
G1 X127.619 Y99.799 E12.35249
G1 X128.521 Y99.839 E12.37051
G1 X129.416 Y99.959 E12.38853
G1 X130.297 Y100.157 E12.40655
G1 X131.157 Y100.432 E12.42457
G1 X131.99 Y100.783 E12.4426
G1 X132.788 Y101.206 E12.46063
G1 X133.545 Y101.697 E12.47863
G1 X134.256 Y102.254 E12.49666
G1 X134.951 Y102.908 E12.5157
G1 X135.069 Y103.03 E12.51909
G1 X135.667 Y103.706 E12.5371
G1 X136.204 Y104.433 E12.55514
G1 X136.673 Y105.204 E12.57315
G1 X137.073 Y106.014 E12.59118
G1 X137.4 Y106.855 E12.60918
G1 X137.651 Y107.723 E12.62721
G1 X137.824 Y108.609 E12.64523
G1 X137.919 Y109.508 E12.66327
G1 X137.931 Y110.46 E12.68227
G1 X137.91 Y111.091 E12.69487
G1 X137.84 Y111.992 E12.7129
G1 X137.691 Y112.882 E12.73091
G1 X137.464 Y113.756 E12.74893
G1 X137.16 Y114.607 E12.76697
G1 X136.782 Y115.427 E12.78498
G1 X136.333 Y116.21 E12.803
G1 X135.816 Y116.951 E12.82103
G1 X135.236 Y117.643 E12.83905
G1 X134.597 Y118.282 E12.85708
G1 X133.828 Y118.925 E12.87708
G1 X133.101 Y119.462 E12.89512
G1 X132.331 Y119.933 E12.91313
G1 X131.521 Y120.333 E12.93116
G1 X130.679 Y120.66 E12.94919
G1 X129.812 Y120.912 E12.96721
G1 X128.926 Y121.085 E12.98522
G1 X128.028 Y121.18 E13.00324
