;FLAVOR:Marlin
;TIME:6091
;Filament used: 2.91744m
;Layer height: 0.12
;MINX:52.113
;MINY:66.112
;MINZ:0.2
;MAXX:167.887
;MAXY:153.887
;MAXZ:12.32
;Generated with Cura_SteamEngine 4.6.1
M140 S90
M105
M190 S90
M104 S215
M105
M109 S215
M82 ;absolute extrusion mode
M201 X500.00 Y500.00 Z100.00 E5000.00 ;Setup machine max acceleration
M203 X500.00 Y500.00 Z10.00 E50.00 ;Setup machine max feedrate
M204 P500.00 R1000.00 T500.00 ;Setup Print/Retract/Travel acceleration
M205 X8.00 Y8.00 Z0.40 E5.00 ;Setup Jerk
M220 S100 ;Reset Feedrate
M221 S100 ;Reset Flowrate

G28 ;Home

G92 E0 ;Reset Extruder
G1 Z2.0 F3000 ;Move Z Axis up
G1 X10.1 Y20 Z0.28 F5000.0 ;Move to start position
G1 X10.1 Y200.0 Z0.28 F1500.0 E15 ;Draw the first line
G1 X10.4 Y200.0 Z0.28 F5000.0 ;Move to side a little
G1 X10.4 Y20 Z0.28 F1500.0 E30 ;Draw the second line
G92 E0 ;Reset Extruder
G1 Z2.0 F3000 ;Move Z Axis up

G92 E0
G92 E0
G1 F2700 E-5
;LAYER_COUNT:102
;LAYER:0
M107
G0 F6000 X56.476 Y69.085 Z0.2
;TYPE:SKIRT
G1 F2700 E0
G1 F900 X57.462 Y68.315 E0.04161
G1 X58.28 Y67.79 E0.07394
G1 X59.138 Y67.335 E0.10624
G1 X60.03 Y66.951 E0.13854
G1 X60.951 Y66.642 E0.17085
G1 X61.484 Y66.501 E0.18919
G1 X62.695 Y66.251 E0.23032
G1 X63.66 Y66.142 E0.26262
G1 X64.505 Y66.112 E0.29074
G1 X66.509 Y66.113 E0.35739
G1 X126.508 Y66.113 E2.35297
G1 X139.285 Y66.118 E2.77793
G1 X155.501 Y66.113 E3.31728
G1 X156.472 Y66.153 E3.3496
G1 X157.436 Y66.272 E3.38191
G1 X158.53 Y66.507 E3.41912
G1 X159.737 Y66.869 E3.46103
G1 X160.638 Y67.232 E3.49334
G1 X161.506 Y67.667 E3.52564
G1 X162.336 Y68.173 E3.55797
G1 X163.121 Y68.745 E3.59027
G1 X163.831 Y69.356 E3.62143
G1 X164.721 Y70.241 E3.66317
G1 X165.344 Y70.985 E3.69545
G1 X165.904 Y71.779 E3.72776
G1 X166.397 Y72.616 E3.76007
G1 X166.819 Y73.491 E3.79238
G1 X167.134 Y74.297 E3.82117
G1 X167.507 Y75.491 E3.86277
G1 X167.712 Y76.44 E3.89506
G1 X167.837 Y77.404 E3.92739
G1 X167.883 Y78.363 E3.95933
G1 X167.887 Y78.943 E3.97862
G1 X167.886 Y80.512 E4.0308
G1 X167.882 Y108.444 E4.95983
G1 X167.886 Y141.506 E6.05947
G1 X167.846 Y142.476 E6.09176
G1 X167.727 Y143.44 E6.12407
G1 X167.496 Y144.514 E6.16061
G1 X167.137 Y145.719 E6.20243
G1 X166.776 Y146.621 E6.23474
G1 X166.342 Y147.49 E6.26705
G1 X165.837 Y148.32 E6.29936
G1 X165.266 Y149.106 E6.33167
G1 X164.644 Y149.831 E6.36345
G1 X163.759 Y150.721 E6.40519
G1 X163.015 Y151.344 E6.43747
G1 X162.221 Y151.904 E6.46978
G1 X161.384 Y152.397 E6.50209
G1 X160.509 Y152.819 E6.5344
G1 X159.963 Y153.04 E6.55399
G1 X158.792 Y153.436 E6.59511
G1 X157.848 Y153.662 E6.62739
G1 X156.888 Y153.81 E6.6597
G1 X155.589 Y153.884 E6.70297
G1 X153.514 Y153.887 E6.77199
G1 X97.032 Y153.882 E8.65059
G1 X64.497 Y153.887 E9.73271
G1 X63.526 Y153.847 E9.76503
G1 X62.562 Y153.728 E9.79734
G1 X61.47 Y153.493 E9.83449
G1 X60.263 Y153.131 E9.8764
G1 X59.362 Y152.768 E9.90871
G1 X58.494 Y152.333 E9.941
G1 X57.664 Y151.827 E9.97333
G1 X56.879 Y151.255 E10.00564
G1 X56.169 Y150.644 E10.03679
G1 X55.279 Y149.759 E10.07854
G1 X54.656 Y149.015 E10.11081
G1 X54.096 Y148.221 E10.14313
G1 X53.603 Y147.384 E10.17544
G1 X53.181 Y146.509 E10.20775
G1 X52.866 Y145.703 E10.23653
G1 X52.493 Y144.509 E10.27813
G1 X52.288 Y143.56 E10.31043
G1 X52.163 Y142.596 E10.34276
G1 X52.117 Y141.637 E10.37469
G1 X52.113 Y141.057 E10.39398
G1 X52.114 Y139.488 E10.44617
G1 X52.118 Y80.641 E12.40343
G1 X52.113 Y80.081 E12.42205
G1 X52.114 Y78.488 E12.47504
G1 X52.155 Y77.517 E12.50736
G1 X52.275 Y76.554 E12.53964
G1 X52.474 Y75.603 E12.57195
G1 X52.697 Y74.833 E12.59862
G1 X53.148 Y73.58 E12.64291
G1 X53.561 Y72.701 E12.67521
G1 X54.045 Y71.859 E12.70751
G1 X54.597 Y71.059 E12.73984
G1 X55.212 Y70.307 E12.77215
G1 X55.887 Y69.609 E12.80445
G1 X56.476 Y69.085 E12.83067
G0 F6000 X56.732 Y69.392
G1 F900 X57.706 Y68.633 E12.87174
G1 X58.51 Y68.119 E12.90348
G1 X59.355 Y67.674 E12.93524
G1 X60.234 Y67.301 E12.967
G1 X61.577 Y66.89 E13.01371
G1 X62.772 Y66.644 E13.05429
G1 X63.721 Y66.539 E13.08605
G1 X64.505 Y66.512 E13.11214
G1 X66.509 Y66.513 E13.17879
G1 X126.507 Y66.513 E15.17433
G1 X139.284 Y66.518 E15.5993
G1 X155.501 Y66.513 E16.13868
G1 X156.455 Y66.553 E16.17044
G1 X157.403 Y66.672 E16.20221
G1 X158.428 Y66.894 E16.2371
G1 X159.618 Y67.251 E16.27842
G1 X160.503 Y67.61 E16.31018
G1 X161.355 Y68.041 E16.34194
G1 X162.168 Y68.542 E16.3737
G1 X162.936 Y69.109 E16.40545
G1 X163.558 Y69.649 E16.43285
G1 X164.436 Y70.522 E16.47403
G1 X165.047 Y71.255 E16.50577
G1 X165.594 Y72.037 E16.53751
G1 X166.075 Y72.862 E16.56927
G1 X166.484 Y73.725 E16.60104
G1 X166.756 Y74.429 E16.62614
G1 X167.124 Y75.607 E16.66719
G1 X167.323 Y76.54 E16.69892
G1 X167.443 Y77.488 E16.7307
G1 X167.483 Y78.365 E16.7599
G1 X167.487 Y78.945 E16.77919
G1 X167.486 Y80.512 E16.83131
G1 X167.482 Y108.444 E17.76033
G1 X167.486 Y141.506 E18.85998
G1 X167.446 Y142.46 E18.89174
G1 X167.327 Y143.407 E18.92348
G1 X167.11 Y144.412 E18.95768
G1 X166.755 Y145.601 E18.99895
G1 X166.398 Y146.487 E19.03072
G1 X165.968 Y147.339 E19.06246
G1 X165.468 Y148.153 E19.09424
G1 X164.902 Y148.922 E19.12599
G1 X164.351 Y149.558 E19.15398
G1 X163.478 Y150.436 E19.19516
G1 X162.745 Y151.047 E19.2269
G1 X161.963 Y151.594 E19.25864
G1 X161.138 Y152.075 E19.2904
G1 X160.275 Y152.484 E19.32217
G1 X159.575 Y152.758 E19.34717
G1 X158.668 Y153.056 E19.37892
G1 X157.739 Y153.276 E19.41068
G1 X156.794 Y153.418 E19.44246
G1 X155.588 Y153.484 E19.48263
G1 X153.513 Y153.487 E19.55165
G1 X97.032 Y153.482 E21.43021
G1 X64.497 Y153.487 E22.51233
G1 X63.543 Y153.447 E22.54409
G1 X62.596 Y153.328 E22.57584
G1 X61.572 Y153.106 E22.61068
G1 X60.382 Y152.749 E22.65201
G1 X59.497 Y152.39 E22.68377
G1 X58.645 Y151.959 E22.71553
G1 X57.832 Y151.458 E22.74729
G1 X57.064 Y150.891 E22.77904
G1 X56.442 Y150.351 E22.80644
G1 X55.564 Y149.478 E22.84762
G1 X54.953 Y148.745 E22.87936
G1 X54.406 Y147.963 E22.9111
G1 X53.925 Y147.138 E22.94286
G1 X53.516 Y146.275 E22.97463
G1 X53.244 Y145.571 E22.99973
G1 X52.876 Y144.393 E23.04078
G1 X52.677 Y143.46 E23.07251
G1 X52.557 Y142.512 E23.10429
G1 X52.517 Y141.635 E23.13349
G1 X52.513 Y141.055 E23.15278
G1 X52.514 Y139.488 E23.2049
G1 X52.518 Y80.638 E25.16226
G1 X52.513 Y80.078 E25.18088
G1 X52.514 Y78.488 E25.23377
G1 X52.555 Y77.534 E25.26553
G1 X52.675 Y76.587 E25.29728
G1 X52.874 Y75.653 E25.32904
G1 X53.077 Y74.957 E25.35315
G1 X53.523 Y73.72 E25.39689
G1 X53.931 Y72.857 E25.42864
G1 X54.41 Y72.031 E25.46039
G1 X54.956 Y71.247 E25.49217
G1 X55.565 Y70.513 E25.52389
G1 X56.234 Y69.831 E25.55567
G1 X56.732 Y69.392 E25.57775
G0 F6000 X56.988 Y69.699
G1 F900 X57.949 Y68.952 E25.61823
G1 X58.74 Y68.448 E25.64943
G1 X59.571 Y68.014 E25.68061
G1 X60.437 Y67.653 E25.71181
G1 X61.671 Y67.278 E25.75471
G1 X62.849 Y67.036 E25.79471
G1 X63.782 Y66.935 E25.82592
G1 X64.504 Y66.912 E25.84995
G1 X66.508 Y66.913 E25.9166
G1 X126.507 Y66.913 E27.91218
G1 X139.285 Y66.918 E28.33717
G1 X155.502 Y66.913 E28.87655
G1 X156.439 Y66.953 E28.90775
G1 X157.369 Y67.072 E28.93893
G1 X158.325 Y67.281 E28.97148
G1 X159.5 Y67.633 E29.01228
G1 X160.368 Y67.988 E29.04347
G1 X161.203 Y68.414 E29.07464
G1 X161.999 Y68.911 E29.10586
G1 X162.749 Y69.473 E29.13703
G1 X163.285 Y69.942 E29.16072
G1 X164.15 Y70.803 E29.20131
G1 X164.749 Y71.525 E29.23251
G1 X165.284 Y72.295 E29.2637
G1 X165.752 Y73.108 E29.2949
G1 X166.148 Y73.958 E29.32609
G1 X166.378 Y74.56 E29.34752
G1 X166.741 Y75.722 E29.38801
G1 X166.934 Y76.64 E29.41921
G1 X167.048 Y77.571 E29.45041
G1 X167.083 Y78.368 E29.47694
G1 X167.087 Y78.948 E29.49623
G1 X167.086 Y80.511 E29.54822
G1 X167.082 Y108.444 E30.47727
G1 X167.086 Y141.506 E31.57692
G1 X167.046 Y142.443 E31.60811
G1 X166.927 Y143.373 E31.6393
G1 X166.723 Y144.31 E31.67119
G1 X166.372 Y145.483 E31.71191
G1 X166.02 Y146.352 E31.7431
G1 X165.594 Y147.188 E31.77431
G1 X165.099 Y147.984 E31.80548
G1 X164.538 Y148.736 E31.83669
G1 X164.058 Y149.285 E31.86094
G1 X163.197 Y150.15 E31.90154
G1 X162.475 Y150.749 E31.93274
G1 X161.705 Y151.284 E31.96392
G1 X160.892 Y151.752 E31.99512
G1 X159.682 Y152.291 E32.03918
G1 X158.543 Y152.675 E32.07916
G1 X157.63 Y152.89 E32.11036
G1 X156.702 Y153.026 E32.14155
G1 X155.588 Y153.084 E32.17865
G1 X153.513 Y153.087 E32.24767
G1 X97.032 Y153.082 E34.12623
G1 X64.497 Y153.087 E35.20835
G1 X63.56 Y153.047 E35.23955
G1 X62.629 Y152.928 E35.27076
G1 X61.675 Y152.719 E35.30325
G1 X60.5 Y152.367 E35.34404
G1 X59.632 Y152.012 E35.37523
G1 X58.797 Y151.586 E35.40641
G1 X58.001 Y151.089 E35.43762
G1 X57.251 Y150.527 E35.46879
G1 X56.715 Y150.058 E35.49248
G1 X55.85 Y149.197 E35.53308
G1 X55.251 Y148.475 E35.56428
G1 X54.716 Y147.705 E35.59546
G1 X54.248 Y146.892 E35.62666
G1 X53.852 Y146.042 E35.65785
G1 X53.622 Y145.44 E35.67929
G1 X53.259 Y144.278 E35.71978
G1 X53.066 Y143.36 E35.75098
G1 X52.952 Y142.429 E35.78217
G1 X52.917 Y141.632 E35.80871
G1 X52.913 Y141.052 E35.828
G1 X52.914 Y139.489 E35.87998
G1 X52.918 Y80.634 E37.83751
G1 X52.913 Y80.074 E37.85614
G1 X52.914 Y78.489 E37.90885
G1 X52.955 Y77.552 E37.94005
G1 X53.075 Y76.621 E37.97127
G1 X53.274 Y75.705 E38.00245
G1 X53.457 Y75.082 E38.02404
G1 X53.898 Y73.86 E38.06725
G1 X54.301 Y73.013 E38.09845
G1 X54.774 Y72.203 E38.12965
G1 X55.314 Y71.437 E38.16082
G1 X55.918 Y70.719 E38.19203
G1 X56.581 Y70.056 E38.22321
G1 X56.988 Y69.699 E38.24122
G0 F6000 X57.244 Y70.007
G1 F900 X58.191 Y69.27 E38.28113
G1 X58.969 Y68.778 E38.31175
G1 X59.787 Y68.355 E38.34238
G1 X60.639 Y68.005 E38.37301
G1 X61.764 Y67.667 E38.41208
G1 X62.926 Y67.429 E38.45153
G1 X63.841 Y67.332 E38.48214
G1 X64.504 Y67.312 E38.5042
G1 X66.508 Y67.313 E38.57085
G1 X126.507 Y67.313 E40.56642
G1 X139.285 Y67.318 E40.99142
G1 X155.502 Y67.313 E41.5308
G1 X156.422 Y67.353 E41.56143
G1 X157.334 Y67.472 E41.59202
G1 X158.223 Y67.667 E41.62229
G1 X159.38 Y68.016 E41.66249
G1 X160.232 Y68.365 E41.69311
G1 X161.05 Y68.788 E41.72374
G1 X161.828 Y69.279 E41.75434
G1 X162.561 Y69.837 E41.78498
G1 X163.013 Y70.234 E41.80499
G1 X163.865 Y71.084 E41.84502
G1 X164.451 Y71.794 E41.87563
G1 X164.973 Y72.552 E41.90625
G1 X165.428 Y73.352 E41.93686
G1 X165.811 Y74.189 E41.96747
G1 X166.001 Y74.692 E41.98535
G1 X166.358 Y75.838 E42.02528
G1 X166.545 Y76.739 E42.05588
G1 X166.653 Y77.653 E42.08649
G1 X166.683 Y78.371 E42.1104
G1 X166.687 Y78.951 E42.12969
G1 X166.686 Y80.511 E42.18157
G1 X166.682 Y108.444 E43.11063
G1 X166.686 Y141.506 E44.21028
G1 X166.646 Y142.426 E44.2409
G1 X166.527 Y143.338 E44.27149
G1 X166.336 Y144.208 E44.30112
G1 X165.99 Y145.364 E44.34125
G1 X165.642 Y146.217 E44.37189
G1 X165.221 Y147.035 E44.40249
G1 X164.73 Y147.815 E44.43315
G1 X164.174 Y148.548 E44.46375
G1 X163.766 Y149.013 E44.48432
G1 X162.916 Y149.865 E44.52435
G1 X162.206 Y150.451 E44.55497
G1 X161.448 Y150.973 E44.58558
G1 X160.648 Y151.428 E44.61619
G1 X159.542 Y151.916 E44.6564
G1 X158.419 Y152.295 E44.69582
G1 X157.522 Y152.503 E44.72645
G1 X156.61 Y152.633 E44.75709
G1 X155.587 Y152.684 E44.79115
G1 X153.512 Y152.687 E44.86017
G1 X97.032 Y152.682 E46.7387
G1 X64.497 Y152.687 E47.82082
G1 X63.577 Y152.647 E47.85145
G1 X62.664 Y152.528 E47.88207
G1 X61.777 Y152.333 E47.91228
G1 X60.62 Y151.984 E47.95247
G1 X59.768 Y151.635 E47.98309
G1 X58.95 Y151.212 E48.01372
G1 X58.172 Y150.721 E48.04432
G1 X57.439 Y150.163 E48.07496
G1 X56.987 Y149.766 E48.09497
G1 X56.135 Y148.916 E48.135
G1 X55.549 Y148.206 E48.16562
G1 X55.027 Y147.448 E48.19623
G1 X54.572 Y146.648 E48.22684
G1 X54.189 Y145.811 E48.25746
G1 X53.999 Y145.308 E48.27534
G1 X53.642 Y144.162 E48.31526
G1 X53.455 Y143.261 E48.34587
G1 X53.347 Y142.347 E48.37648
G1 X53.317 Y141.629 E48.40038
G1 X53.313 Y141.049 E48.41967
G1 X53.314 Y139.489 E48.47156
G1 X53.318 Y80.631 E50.42918
G1 X53.313 Y80.071 E50.44781
G1 X53.314 Y78.489 E50.50043
G1 X53.355 Y77.569 E50.53106
G1 X53.475 Y76.656 E50.56168
G1 X53.674 Y75.757 E50.59231
G1 X53.838 Y75.206 E50.61143
G1 X54.273 Y74.001 E50.65404
G1 X54.67 Y73.17 E50.68467
G1 X55.138 Y72.377 E50.7153
G1 X55.673 Y71.628 E50.74591
G1 X56.27 Y70.927 E50.77654
G1 X57.244 Y70.007 E50.8211
G0 F6000 X57.5 Y70.314
G1 F900 X58.434 Y69.589 E50.86042
G1 X59.198 Y69.108 E50.89045
G1 X60.002 Y68.696 E50.9205
G1 X60.839 Y68.358 E50.95052
G1 X61.858 Y68.056 E50.98587
G1 X63.002 Y67.822 E51.02471
G1 X63.901 Y67.73 E51.05477
G1 X64.504 Y67.712 E51.07483
G1 X66.508 Y67.713 E51.14148
G1 X126.507 Y67.713 E53.13706
G1 X139.285 Y67.718 E53.56206
G1 X155.502 Y67.713 E54.10144
G1 X156.404 Y67.753 E54.13147
G1 X157.299 Y67.872 E54.1615
G1 X158.12 Y68.054 E54.18947
G1 X159.261 Y68.398 E54.2291
G1 X160.095 Y68.743 E54.25912
G1 X160.896 Y69.161 E54.28917
G1 X161.657 Y69.647 E54.3192
G1 X162.371 Y70.199 E54.34922
G1 X162.947 Y70.72 E54.37505
G1 X163.579 Y71.364 E54.40506
G1 X164.153 Y72.062 E54.43512
G1 X164.662 Y72.808 E54.46516
G1 X165.103 Y73.596 E54.49519
G1 X165.623 Y74.823 E54.53952
G1 X165.974 Y75.953 E54.57887
G1 X166.156 Y76.837 E54.60889
G1 X166.258 Y77.734 E54.63892
G1 X166.283 Y78.374 E54.66022
G1 X166.287 Y78.954 E54.67951
G1 X166.286 Y80.511 E54.7313
G1 X166.282 Y108.443 E55.66032
G1 X166.286 Y141.506 E56.76
G1 X166.246 Y142.408 E56.79003
G1 X166.127 Y143.303 E56.82006
G1 X165.949 Y144.106 E56.84742
G1 X165.608 Y145.246 E56.88699
G1 X165.264 Y146.081 E56.91703
G1 X164.848 Y146.882 E56.94705
G1 X164.362 Y147.644 E56.97711
G1 X163.811 Y148.359 E57.00713
G1 X163.473 Y148.74 E57.02407
G1 X162.636 Y149.579 E57.06349
G1 X161.938 Y150.153 E57.09355
G1 X161.192 Y150.662 E57.12358
G1 X160.404 Y151.103 E57.15362
G1 X159.401 Y151.542 E57.19003
G1 X158.295 Y151.914 E57.22884
G1 X157.414 Y152.116 E57.25891
G1 X156.52 Y152.24 E57.28893
G1 X155.587 Y152.284 E57.31999
G1 X153.512 Y152.287 E57.38901
G1 X97.032 Y152.282 E59.26754
G1 X64.497 Y152.287 E60.34966
G1 X63.594 Y152.247 E60.37972
G1 X62.699 Y152.128 E60.40975
G1 X61.88 Y151.946 E60.43766
G1 X60.739 Y151.602 E60.47729
G1 X59.905 Y151.257 E60.50731
G1 X59.104 Y150.839 E60.53736
G1 X58.343 Y150.353 E60.56739
G1 X57.629 Y149.801 E60.59741
G1 X57.053 Y149.28 E60.62324
G1 X56.421 Y148.636 E60.65326
G1 X55.847 Y147.938 E60.68331
G1 X55.338 Y147.192 E60.71335
G1 X54.897 Y146.404 E60.74338
G1 X54.377 Y145.177 E60.78771
G1 X54.026 Y144.047 E60.82706
G1 X53.844 Y143.163 E60.85708
G1 X53.742 Y142.266 E60.88711
G1 X53.717 Y141.626 E60.90841
G1 X53.713 Y141.046 E60.9277
G1 X53.714 Y139.489 E60.97949
G1 X53.718 Y80.627 E62.93725
G1 X53.713 Y80.067 E62.95587
G1 X53.714 Y78.489 E63.00836
G1 X53.755 Y77.587 E63.03839
G1 X53.875 Y76.692 E63.06842
G1 X54.074 Y75.811 E63.09846
G1 X54.218 Y75.33 E63.11516
G1 X54.648 Y74.142 E63.15718
G1 X55.039 Y73.328 E63.18722
G1 X55.501 Y72.552 E63.21726
G1 X56.03 Y71.82 E63.2473
G1 X56.622 Y71.137 E63.27736
G1 X57.5 Y70.314 E63.31738
G0 F6000 X57.756 Y70.622
G1 F900 X58.676 Y69.907 E63.35614
G1 X59.426 Y69.438 E63.38556
G1 X60.216 Y69.039 E63.415
G1 X61.039 Y68.712 E63.44445
G1 X61.951 Y68.445 E63.47606
G1 X63.078 Y68.216 E63.51431
G1 X63.959 Y68.127 E63.54376
G1 X64.504 Y68.112 E63.56189
G1 X66.508 Y68.113 E63.62855
G1 X126.507 Y68.113 E65.62412
G1 X139.285 Y68.118 E66.04912
G1 X155.502 Y68.113 E66.5885
G1 X156.386 Y68.153 E66.61793
G1 X157.263 Y68.272 E66.64737
G1 X158.017 Y68.441 E66.67307
G1 X159.141 Y68.78 E66.71211
G1 X159.958 Y69.12 E66.74155
G1 X160.741 Y69.533 E66.77099
G1 X161.484 Y70.015 E66.80045
G1 X162.467 Y70.819 E66.84269
G1 X163.294 Y71.644 E66.88154
G1 X163.853 Y72.33 E66.91097
G1 X164.349 Y73.063 E66.94041
G1 X164.777 Y73.839 E66.96988
G1 X165.245 Y74.955 E67.01013
G1 X165.59 Y76.067 E67.04886
G1 X165.766 Y76.935 E67.07831
G1 X165.863 Y77.815 E67.10776
G1 X165.883 Y78.376 E67.12643
G1 X165.887 Y78.956 E67.14572
G1 X165.886 Y80.511 E67.19744
G1 X165.882 Y108.443 E68.12646
G1 X165.886 Y141.506 E69.22614
G1 X165.846 Y142.39 E69.25558
G1 X165.727 Y143.267 E69.28501
G1 X165.562 Y144.004 E69.31013
G1 X165.225 Y145.126 E69.3491
G1 X164.886 Y145.944 E69.37855
G1 X164.475 Y146.728 E69.40799
G1 X163.994 Y147.471 E69.43743
G1 X163.181 Y148.467 E69.48019
G1 X162.356 Y149.294 E69.51904
G1 X161.67 Y149.853 E69.54847
G1 X160.937 Y150.349 E69.57791
G1 X160.161 Y150.777 E69.60739
G1 X159.261 Y151.167 E69.64001
G1 X158.171 Y151.533 E69.67825
